X:39
T: BAEH LAEMMEL BAEH
N: K0260
O: Europa, Mitteleuropa, Deutschland, Breslau
R: Kinder -, Kose -, Scherz - Lied
M: 2/4
L: 1/16
K: F
 | c4A2G2 | F4z2
F2 | c2c2A2G2 | F4z2
F2 | G2G2G2G2 | A3GF2
F2 | G2G2G2G2 | A3GF2
F2 | c2c2A2G2 | F4z4

@@@ Tune index: 7376
